dist/svg/u2712.svg

<?xml version="1.0" encoding="UTF-8"?><svg id="a" xmlns="http://www.w3.org/2000/svg" viewBox="0 0 40 40"><g><path d="M5.699,33.532c-.459-.805-.354-1.844,.333-2.531,.823-.823,2.158-.823,2.982,0s.823,2.158,0,2.982c-.687,.687-1.727,.792-2.531,.333l-3.727,3.727,7.569-1.159c.631-.097,1.189-.46,1.533-.998l5.124-8.027-4.825-4.825-8.027,5.124c-.538,.343-.902,.902-.998,1.533l-1.159,7.568,3.727-3.727Z" fill="#a3adb7"/><path d="M33.002,2.286l-6.896,4.533c-6.528,4.291-11.835,10.197-15.405,17.145h0l5.351,5.351,.06-.031c6.891-3.57,12.748-8.851,17.011-15.336l4.577-6.963c.521-.793,.414-1.842-.257-2.513l-1.928-1.928c-.671-.671-1.72-.778-2.513-.257Z" fill="#424f57"/></g><rect id="b" y="0" width="40" height="40" fill="none"/></svg>

<svg id="Layer_1" data-name="Layer 1" xmlns="http://www.w3.org/2000/svg" viewBox="0 0 40 40"><defs><style>.cls-1{fill:#a3adb7;}.cls-2{fill:#424f57;}.cls-3{fill:none;}</style></defs><path class="cls-1" d="M5.7,33.532a2.107,2.107,0,1,1,.783.784L2.755,38.043l7.569-1.159a2.213,2.213,0,0,0,1.532-1l5.124-8.027-4.825-4.825L4.129,28.158a2.215,2.215,0,0,0-1,1.533L1.972,37.259Z"/><path class="cls-2" d="M33,2.286l-6.9,4.532A45.284,45.284,0,0,0,10.7,23.963h0l5.351,5.351.06-.031A45.291,45.291,0,0,0,33.123,13.946L37.7,6.983a2,2,0,0,0-.257-2.513L35.515,2.543A2,2,0,0,0,33,2.286Z"/><rect id="SVGID" class="cls-3" width="40" height="40"/></svg>
